src/assets/svg-icons/discord-icon.svg

<svg width="37" height="25" viewBox="0 0 37 25" fill="none" xmlns="http://www.w3.org/2000/svg">
<path d="M8.68353 19.7276C16.319 22.7074 22.8168 23.2878 30.1801 18.6497C30.1261 18.7306 28.6696 20.8885 24.8393 21.9944C25.6485 23.1003 26.7544 24.368 26.7544 24.368C29.2091 24.368 31.6097 23.6667 33.6866 22.318C35.3051 21.2391 36.2222 19.3779 36.0333 17.4358C35.7097 14.118 34.9274 10.8812 33.7136 7.7793C32.1761 3.73327 28.4808 0.927977 24.1919 0.523342C23.8143 0.496356 23.5446 0.496356 23.3827 0.496356L22.9512 0.927897C27.8874 2.33055 30.342 4.5154 30.3959 4.59635C22.8163 0.766058 13.8611 0.712166 6.22745 4.43452C6.22745 4.43452 8.6551 2.03386 14.0228 0.766059L13.6991 0.442383C13.1327 0.442383 12.5932 0.496355 12.0268 0.577234C8.06164 1.25157 4.74392 3.97591 3.31429 7.72525C2.07348 10.9621 1.26429 14.3608 0.967597 17.8134C0.805759 19.6476 1.66892 21.4549 3.17944 22.5069C5.17546 23.8286 7.54914 24.5299 9.9498 24.5299C9.9498 24.5299 10.9208 23.2621 11.8919 22.1292C8.25046 21.0502 6.76693 18.8924 6.73995 18.8114L7.42526 19.1614C7.83494 19.3707 8.25495 19.5603 8.68353 19.7276ZM12.9169 17.3819C11.1636 17.3279 9.78796 15.8444 9.84193 14.0641C9.89591 12.3917 11.2446 11.043 12.9169 10.9891C14.6702 11.043 16.0459 12.5266 15.9919 14.3069C15.911 15.9793 14.5893 17.328 12.9169 17.3819ZM23.9222 17.3819C22.1688 17.3279 20.7932 15.8444 20.8472 14.0641C20.9011 12.3917 22.2498 11.043 23.9222 10.9891C25.6755 11.043 27.0511 12.5266 26.9972 14.3069C26.9433 15.9793 25.5945 17.328 23.9222 17.3819Z" fill="black"/>
</svg>

<svg xmlns="http://www.w3.org/2000/svg" width="37" height="25" fill="none" viewBox="0 0 37 25"><path fill="#000" d="M8.684 19.728c7.635 2.98 14.133 3.56 21.496-1.078-.054.08-1.51 2.239-5.34 3.344.808 1.106 1.914 2.374 1.914 2.374a12.7 12.7 0 0 0 6.933-2.05c1.618-1.079 2.535-2.94 2.346-4.882a36.063 36.063 0 0 0-2.32-9.657 11.323 11.323 0 0 0-9.52-7.256c-.378-.027-.647-.027-.81-.027l-.43.432c4.935 1.403 7.39 3.587 7.444 3.668a27.196 27.196 0 0 0-24.169-.161S8.655 2.034 14.023.766l-.324-.324c-.566 0-1.106.054-1.672.135a11.37 11.37 0 0 0-8.713 7.148c-1.24 3.237-2.05 6.636-2.346 10.088-.162 1.835.7 3.642 2.211 4.694a12.3 12.3 0 0 0 6.77 2.023s.972-1.268 1.943-2.4c-3.642-1.08-5.125-3.239-5.152-3.32l.685.35c.41.21.83.4 1.259.567Zm4.233-2.346c-1.753-.054-3.129-1.538-3.075-3.318a3.183 3.183 0 0 1 3.075-3.075c1.753.054 3.129 1.538 3.075 3.318-.081 1.672-1.403 3.021-3.075 3.075Zm11.005 0c-1.753-.054-3.129-1.538-3.075-3.318a3.183 3.183 0 0 1 3.075-3.075c1.753.054 3.13 1.538 3.075 3.318a3.183 3.183 0 0 1-3.075 3.075Z"/></svg>
